X:1
T:Las Notas 
M:3/4
L:1/4
Q:1/4=90
V: Der
%%MIDI program 0
K:C clef=treble
%-
C c c' | D d d' | E e e' | F f f' | 
G, G g | A, A a | B, B b | z3 | 
C D E | F G A | B c d | e f g | 
%-
V: Izq
%%MIDI program 1
K:C clef=bass
%-
C,, C, C | D,, D, D | E,, E, E | F,, F, F | 
G,, G, G | A,,, A,, A, | B,,, B,, B, | z3 | 
C, D, E, | F, G, A, | B, C D | E F G  | 
